X: 34
T: Alvan Batchelder's
M: 2/2
L: 1/8
G: Dominion
K: G
|:g|"G"gdBG DCB,A,|G,A,DG B2AB|"Am"cBAG "D7"FDFG|ABc^c d^def|"G"gdBG DCB,A,|G,A,DG B2AB|
"Am"cBAG "D7"FDEF|"G"G2B2G3:||:A|"Em"beef gfed|Beef g3a|"G"bagb "D7"agfa|
"Em"gfeg "B7"f3f|"Em"Beef gfed|Beef g3a|"G"bagb "D7"agfa|fdef "G"g3:|
%%newpage
%%textfont * 14
%%begintext justify
%%32 Bar Reels
%%endtext
